!!!SOCIAL_FUNCTION:	songs of personal narratives concerning war
!!!PDT:	1918

Specific Region: Dakotas, Minnesota, Montana, Nebraska
!!!REG: Dakotas and Montana
!!!LING_GROUP: Siouan
!!!LANG: Tone
!!!OTL@ENG: Sister, I Bring You a Horse
!!!ONM: No. 176
**kern
*Imale
*clefF4
*k[b-e-]
*M2/4
*MM80
2d
=2
16.c
32d
8c
16B-
8.G
=3
4B-
4B-
=4
8d
24c
24d
24c
8.B-
16G
=5
16B-
8.G
8.G
16G
=6
8G
8G
8F
8D
=7||
*M3/4
4B-
4B-
8.B-
16G
=8
16B-
8.G
8G
8G
8F
8D
=
16F
8.F
8.D
16D
=
2D
=9||
*M3/4
[2D
8D]
8D
=10||
*M2/4
8.d
16d
4d
=11
12d
12c
12B-
16B-
8.G
=12
16B-
8.G
8.G
16G
=13
16B-
8.G
8.F
16D
=14||
*M3/4
8.B-
16B-
4B-
8.B-
16G
=15
16B-
8.G
8G
8G
8.F
16D
=16||
*M2/4
16F
8.F
8.D
16D
=17
2D
=18
4D
4r
==
*-
!!!CNT: Native American -- Sioux
!!!MRD: 1911/07//-1914///
!!!OCL: Frances Densmore
!!!YOR1: Teton Sioux Music, Bulletin 61,
!!!YOR2: Bureau of American Ethnology, Smithsonian Institution
!!!PPR: Government Printing Office
!!!PPP: Washington, D.C.
!!!PDT: 1918///
!!!ENC: Craig Stuart Sapp
!!!END: 2002/03/25/
!!!EEV: 2002/03/31/
!!!AGN: War Song/Song of Personal Narrative Concerning War
!!!MPN@@SIO: Shung'ka-lu'zahang
!!!MPN@ENG: Swift Dog
!!!TXO: Teton Sioux
!!!MLC: Standing Rock Reservation, South Dakota, United States of America
!!!ARL: 45.9/-100.7#
!!!catalog: Catalogue No. 589
!!!PPG: 410
!!!EFL: 181/245
!!!VTS: 868964180
